remix/System/shield-check-line.svg

<svg viewBox="0 0 24 24" fill="currentColor" xmlns="http://www.w3.org/2000/svg"><path d="M12 1L20.2169 2.82598C20.6745 2.92766 21 3.33347 21 3.80217V13.7889C21 15.795 19.9974 17.6684 18.3282 18.7812L12 23L5.6718 18.7812C4.00261 17.6684 3 15.795 3 13.7889V3.80217C3 3.33347 3.32553 2.92766 3.78307 2.82598L12 1ZM12 3.04879L5 4.60434V13.7889C5 15.1263 5.6684 16.3752 6.7812 17.1171L12 20.5963L17.2188 17.1171C18.3316 16.3752 19 15.1263 19 13.7889V4.60434L12 3.04879ZM16.4524 8.22183L17.8666 9.63604L11.5026 16L7.25999 11.7574L8.67421 10.3431L11.5019 13.1709L16.4524 8.22183Z"/></svg>

<svg viewBox="0 0 24 24" xmlns="http://www.w3.org/2000/svg"><path fill="none" d="M0 0h24v24H0Z"/><path d="M12 1l8.21 1.826c.45.1.78.5.78.976v9.987c0 2-1.01 3.88-2.68 4.99l-6.33 4.21 -6.33-4.22c-1.67-1.12-2.68-2.99-2.68-4.991V3.79c0-.47.32-.88.78-.976L11.96.98Zm0 2.049l-7 1.55v9.185c0 1.33.66 2.58 1.78 3.32l5.219 3.48 5.21-3.48c1.11-.75 1.78-1.99 1.78-3.33V4.58l-7-1.56Zm4.45 5.173l1.41 1.41 -6.37 6.36 -4.243-4.243 1.41-1.42 2.82 2.82 4.95-4.95Z"/></svg>
